packages/foundations/assets/icons/functional/images/arrows/chevron_left_20.svg

<svg xmlns="http://www.w3.org/2000/svg" width="20" height="20" fill="none"><g clip-path="url(#a)"><path fill="#1A1C1F" fill-rule="evenodd" d="M13.5 15.006c0 .53-.431.994-.995.994-.266 0-.531-.133-.697-.298l-5.01-5.006A1 1 0 0 1 6.5 10c0-.227.073-.455.22-.62l5.088-5.082c.166-.199.431-.298.697-.298.564 0 .995.464.995.994 0 .266-.1.53-.299.73L8.921 10l4.28 4.276c.2.2.299.464.299.73" clip-rule="evenodd"/></g><defs><clipPath id="a"><path fill="#fff" d="M0 0h20v20H0z"/></clipPath></defs></svg>

<svg width="20" height="20" viewBox="0 0 20 20" fill="none" xmlns="http://www.w3.org/2000/svg">
<g clip-path="url(#clip0_77_502)">
<path fill-rule="evenodd" clip-rule="evenodd" d="M13.5 15.006C13.5 15.536 13.069 16 12.505 16C12.239 16 11.974 15.867 11.808 15.702L6.798 10.696C6.61218 10.5114 6.50533 10.2619 6.5 10C6.5 9.773 6.573 9.545 6.72 9.38L11.808 4.298C11.974 4.099 12.239 4 12.505 4C13.069 4 13.5 4.464 13.5 4.994C13.5 5.26 13.4 5.524 13.201 5.724L8.921 10L13.201 14.276C13.401 14.476 13.5 14.74 13.5 15.006Z" fill="#1A1C1F"/>
</g>
<defs>
<clipPath id="clip0_77_502">
<rect width="20" height="20" fill="white"/>
</clipPath>
</defs>
</svg>
